X:19139
T:Xota de La Madalena (MQ 077)
T:Xota Llanisca (MQ 077)
R:Xota
C:Tradicional
S:Msica Tradicional Asturiana, (C) Tello & Tito. Asturies, 2001.
S:http://pagina.de/MusTradAst <telloytito@asturies.org>
N:Jota de la zona de Llanes.
N:La aprend de un gaitero ciego ya fallecido, que haba sido "tamboriteru" de Manolo Rivas, "El gaiteru de la Portiella".
N:Nos la ense a los gaiteros que estbamos en el Centro Asturiano de Madrid y nos dijo que era tal como la tocaba Manolo Rivas.
N:Se conoce con el nombre de "llanisca" o jota de la "Madalena".
O:Llanes
A:Asturies
Z:Manolo Quirs 077
M:3/8
L:1/8
Q:3/8=84
K:C
c/B/A/G/
|: AGA|GAG|B2 A-|A B/A/G/F/|GFG|FGF|A2 G-|G A/B/A/B/|
G A/B/A/B/|G G/A/B/c/|d2 c-|c d/c/B/A/|GAG|FED|C3-|CEE|
E D/E/D/E/|D C/D/C/D/|C B,/D/ G-|G E/F/E/D/|C B,/D/ G-|GEE|E D/E/D/E/|DC/D/C/D/|
C B,/D/ G-|G A/B/A/G/|F2 E/D/|F2 E/D/|FED|C B,/C/D/B,/|C3-|C2 c|
f2 e/d/|cBA|AGc-|c B2|AGF|F E2|G F2-|F2 c|
d2 d/d/|dcd|e/f/e/d/ c|c2 d|efe|dcd-|d B2-|BcA|
B G2-|GAF|B/A/G/F/ E-|Ede|f2 e/d/|cdB|c2 A-|ABG-|
GAB|f2 e/d/|c3-|[1 c c/B/A/G/ :|[2 c3 ||
